X: 98
T: Væverdans
B:[[Notböcker/Melodier til gamle danske Almuedanse for Violin solo]]
O:Danmark
Z:Søren Bak Vestergaard
M: 3/8
L: 1/16
K: D
(!upbow!df)|A3GFA|d2d2 (!upbow!df)|A3GFA|\
d2d2 (!upbow!fg)|a2a2 (fg)|a2a2f2|g2e2c2|d2 z2|]

